assets/icons/meter/three-quarter.svg

<?xml version="1.0" encoding="UTF-8" standalone="no"?>
<svg
   viewBox="0 0 24 24"
   width="24"
   height="24"
   version="1.1"
   id="svg8"
   sodipodi:docname="three-quarter.svg"
   inkscape:version="1.2 (1:1.2.1+202207142221+cd75a1ee6d)"
   xmlns:inkscape="http://www.inkscape.org/namespaces/inkscape"
   xmlns:sodipodi="http://sodipodi.sourceforge.net/DTD/sodipodi-0.dtd"
   xmlns="http://www.w3.org/2000/svg"
   xmlns:svg="http://www.w3.org/2000/svg"
   xmlns:rdf="http://www.w3.org/1999/02/22-rdf-syntax-ns#"
   xmlns:cc="http://creativecommons.org/ns#"
   xmlns:dc="http://purl.org/dc/elements/1.1/">
  <defs
     id="defs2" />
  <sodipodi:namedview
     id="base"
     pagecolor="#ffffff"
     bordercolor="#666666"
     borderopacity="1.0"
     inkscape:pageopacity="0.0"
     inkscape:pageshadow="2"
     inkscape:zoom="45.254834"
     inkscape:cx="11.623068"
     inkscape:cy="11.866136"
     inkscape:document-units="px"
     inkscape:current-layer="layer1"
     inkscape:document-rotation="0"
     showgrid="true"
     units="px"
     inkscape:snap-center="true"
     inkscape:window-width="1920"
     inkscape:window-height="1043"
     inkscape:window-x="0"
     inkscape:window-y="0"
     inkscape:window-maximized="1"
     inkscape:pagecheckerboard="0"
     inkscape:showpageshadow="2"
     inkscape:deskcolor="#d1d1d1">
    <inkscape:grid
       type="xygrid"
       id="grid833" />
    <inkscape:grid
       type="xygrid"
       id="grid846"
       dotted="true"
       spacingx="0.5"
       spacingy="0.5"
       empspacing="10" />
  </sodipodi:namedview>
  <metadata
     id="metadata5">
    <rdf:RDF>
      <cc:Work
         rdf:about="">
        <dc:format>image/svg+xml</dc:format>
        <dc:type
           rdf:resource="http://purl.org/dc/dcmitype/StillImage" />
      </cc:Work>
    </rdf:RDF>
  </metadata>
  <g
     inkscape:label="Calque 1"
     inkscape:groupmode="layer"
     id="layer1">
    <g
       id="layer9"
       label="status"
       style="display:inline;stroke-width:0.8"
       transform="matrix(0.33072916,0,0,0.33072916,-294.81205,62.37552)" />
    <g
       id="layer2"
       style="display:inline;stroke-width:0.8"
       transform="matrix(0.33072916,0,0,0.33072916,-215.10626,-59.002082)" />
    <g
       id="layer4"
       style="display:inline;stroke-width:0.8"
       transform="matrix(0.33072916,0,0,0.33072916,-215.10626,-59.002082)" />
    <g
       id="g1812"
       style="display:inline;stroke-width:0.8"
       transform="matrix(0.33072916,0,0,0.33072916,-215.10626,-59.002082)" />
    <g
       id="g6217"
       style="display:inline;stroke-width:0.8"
       transform="matrix(0.33072916,0,0,0.33072916,-215.10626,-59.002082)" />
    <g
       id="layer3"
       style="display:inline;stroke-width:0.8"
       transform="matrix(0.33072916,0,0,0.33072916,-215.10626,-59.002082)" />
    <g
       id="layer1-6"
       style="display:inline;stroke-width:0.8"
       transform="matrix(0.33072916,0,0,0.33072916,-215.10626,-59.002082)" />
    <path
       id="path47"
       style="fill:#808080;fill-rule:evenodd;stroke-width:0.264583;stroke-linecap:square;stroke-linejoin:round"
       d="M 11.5 3 A 9.4999995 9.4999995 0 0 0 2 12.5 A 9.4999995 9.4999995 0 0 0 6.75 20.726562 L 7.2519531 19.857422 A 8.4999997 8.4999997 0 0 1 4.4121094 17.169922 L 6.1210938 16.183594 L 5.6210938 15.316406 L 3.9121094 16.302734 A 8.4999997 8.4999997 0 0 1 3.0371094 13 L 5 13 L 5 12 L 3.0175781 12 A 8.4999997 8.4999997 0 0 1 3.9023438 8.6914062 L 5.6210938 9.6835938 L 6.1210938 8.8164062 L 4.4042969 7.8261719 A 8.4999997 8.4999997 0 0 1 6.8378906 5.4257812 L 7.8164062 7.1210938 L 8.6835938 6.6210938 L 7.7050781 4.9257812 A 8.4999997 8.4999997 0 0 1 11 4.0175781 L 11 6 L 12 6 L 12 4.0351562 A 8.4999997 8.4999997 0 0 1 15.300781 4.9160156 L 14.316406 6.6210938 L 15.183594 7.1210938 L 16.171875 5.40625 A 8.4999997 8.4999997 0 0 1 18.59375 7.828125 L 16.878906 8.8164062 L 17.378906 9.6835938 L 19.083984 8.6992188 A 8.4999997 8.4999997 0 0 1 19.964844 12 L 19 12 L 19 13 L 19.962891 13 A 8.4999997 8.4999997 0 0 1 19.087891 16.302734 L 17.378906 15.316406 L 16.878906 16.183594 L 18.587891 17.169922 A 8.4999997 8.4999997 0 0 1 15.748047 19.857422 L 16.25 20.726562 A 9.4999995 9.4999995 0 0 0 21 12.5 A 9.4999995 9.4999995 0 0 0 11.5 3 z M 11.5 11 A 1.5 1.5 0 0 0 10 12.5 A 1.5 1.5 0 0 0 11.5 14 A 1.5 1.5 0 0 0 12.914062 13 L 18 13 L 18 12 L 12.914062 12 A 1.5 1.5 0 0 0 11.5 11 z " />
  </g>
</svg>

<svg width="24" height="24" xmlns="http://www.w3.org/2000/svg"><path style="fill:gray;stroke-width:.264583;stroke-linecap:square;stroke-linejoin:round" d="M11.5 3A9.5 9.5 0 0 0 2 12.5a9.5 9.5 0 0 0 4.75 8.227l.502-.87a8.5 8.5 0 0 1-2.84-2.687l1.71-.986-.5-.868-1.71.987A8.5 8.5 0 0 1 3.037 13H5v-1H3.018a8.5 8.5 0 0 1 .884-3.309l1.72.993.5-.868-1.718-.99a8.5 8.5 0 0 1 2.434-2.4l.978 1.695.868-.5-.979-1.695A8.5 8.5 0 0 1 11 4.018V6h1V4.035a8.5 8.5 0 0 1 3.3.881l-.984 1.705.868.5.988-1.715a8.5 8.5 0 0 1 2.422 2.422l-1.715.988.5.868 1.705-.985a8.5 8.5 0 0 1 .88 3.301H19v1h.963a8.5 8.5 0 0 1-.875 3.303l-1.71-.987-.5.868 1.71.986a8.5 8.5 0 0 1-2.84 2.687l.502.87A9.5 9.5 0 0 0 21 12.5 9.5 9.5 0 0 0 11.5 3zm0 8a1.5 1.5 0 0 0-1.5 1.5 1.5 1.5 0 0 0 1.5 1.5 1.5 1.5 0 0 0 1.414-1H18v-1h-5.086a1.5 1.5 0 0 0-1.414-1z"/></svg>
